!!!OTL: "Alter Schlachtgesang" MUTH GEFASST IHR KOELNSCHE JUNGEN
!!!ARE: Europa, Mitteleuropa, Deutschland, Koeln
!!!SCT: Z1136
!!!YEM: Copyright 1995, estate of Helmut Schaffrath.
**kern
*ICvox
*Ivox
*M6/8
*k[f#c#g#]
*A:
{8e
8f#
8g#
=1
4a
8a
8a
8g#
8f#
=2
4e
8e}
{8e
8f#
8g#
=3
4a
8e
4b
8e
=4
4cc#
8r}
{4cc#
8cc#
=5
4cc#
8b
4a
8g#
=6
4a
8f#}
{4b
8b
=7
4b
8a
4g#
8f#
=8
4e
8r}
{4e
8e
=9
4g#
8g#
8g#
8f#
8g#
=10
4a
8e}
{4e
8e
=11
4b
8b
8b
8a
8b
=12
4cc#
8r}
{4a
8a
=13
4dd
8dd
4dd
8dd
=14
4ff#
8ff#}
{4ff#
8ff#
=15
4ee
8cc#
4dd
8b
=16
4a
8r}
==
!!!AGN: Vaterland und Wehr
!!!ONB: ESAC (Essen Associative Code) Database: ZUCCAL
!!!AMT: compound duple
!!!AIN: vox
!!!EED: Helmut Schaffrath
!!!EEV: 1.0
*-
